SVG_Azure_Grouped/Management/Azure LightHouse My Request.svg

<?xml version="1.0" encoding="UTF-8" standalone="no"?>
<!-- Generated by Microsoft Visio, SVG Export Azure LightHouse My Request.svg Page-1 -->

<svg
   xmlns:dc="http://purl.org/dc/elements/1.1/"
   xmlns:cc="http://creativecommons.org/ns#"
   xmlns:rdf="http://www.w3.org/1999/02/22-rdf-syntax-ns#"
   xmlns:svg="http://www.w3.org/2000/svg"
   xmlns="http://www.w3.org/2000/svg"
   xmlns:sodipodi="http://sodipodi.sourceforge.net/DTD/sodipodi-0.dtd"
   xmlns:inkscape="http://www.inkscape.org/namespaces/inkscape"
   width="0.6692549in"
   height="0.78741401in"
   viewBox="0 0 48.186433 56.694097"
   xml:space="preserve"
   class="st9"
   version="1.1"
   id="svg64"
   sodipodi:docname="Azure LightHouse My Request.svg"
   style="font-size:12px;overflow:visible;color-interpolation-filters:sRGB;fill:none;fill-rule:evenodd;stroke-linecap:square;stroke-miterlimit:3"
   inkscape:version="0.92.5 (2060ec1f9f, 2020-04-08)"><metadata
   id="metadata70"><rdf:RDF><cc:Work
       rdf:about=""><dc:format>image/svg+xml</dc:format><dc:type
         rdf:resource="http://purl.org/dc/dcmitype/StillImage" /></cc:Work></rdf:RDF></metadata><defs
   id="defs68" /><sodipodi:namedview
   pagecolor="#ffffff"
   bordercolor="#666666"
   borderopacity="1"
   objecttolerance="10"
   gridtolerance="10"
   guidetolerance="10"
   inkscape:pageopacity="0"
   inkscape:pageshadow="2"
   inkscape:window-width="640"
   inkscape:window-height="480"
   id="namedview66"
   showgrid="false"
   inkscape:zoom="1.7193066"
   inkscape:cx="32.125836"
   inkscape:cy="23.279613"
   inkscape:window-x="0"
   inkscape:window-y="0"
   inkscape:window-maximized="0"
   inkscape:current-layer="svg64" />
	<style
   type="text/css"
   id="style2">
	<![CDATA[
		.st1 {fill:#ff8c00;stroke:none;stroke-linecap:butt;stroke-width:12.24}
		.st2 {fill:#000000;fill-opacity:0.4;stroke:none;stroke-linecap:butt;stroke-width:12.24}
		.st3 {fill:#ffffff;stroke:none;stroke-linecap:butt;stroke-width:12.24}
		.st4 {fill:#a0a1a2;stroke:none;stroke-linecap:butt;stroke-width:12.24}
		.st5 {fill:#ffffff;fill-opacity:0.2;stroke:none;stroke-linecap:butt;stroke-width:12.24}
		.st6 {fill:#59b4d9;stroke:none;stroke-linecap:butt;stroke-width:12.24}
		.st7 {fill:#ffffff;fill-opacity:0.4;stroke:none;stroke-linecap:butt;stroke-width:12.24}
		.st8 {fill:#3999c6;stroke:none;stroke-linecap:butt;stroke-width:12.24}
		.st9 {fill:none;fill-rule:evenodd;font-size:12px;overflow:visible;stroke-linecap:square;stroke-miterlimit:3}
	]]>
	</style>

	<g
   id="g62"
   transform="translate(-12.240125,-12.2402)">
		<title
   id="title4">Page-1</title>
		<g
   id="group12792-1"
   transform="translate(12.24,-34.0157)">
			<title
   id="title6">Azure LightHouse My Request.12792</title>
			<g
   id="group12793-2">
				<title
   id="title8">g24</title>
				<g
   id="shape12794-3"
   transform="translate(0,-8.26772)">
					<title
   id="title10">path4</title>
					<path
   d="M 34.99,102.95 H 1.72 A 1.72103,1.77165 0 0 1 0,101.18 V 59.84 a 1.72103,1.77165 0 0 1 1.72,-1.77 h 33.27 a 1.72103,1.77165 0 0 1 1.73,1.77 v 41.34 a 1.72103,1.77165 0 0 1 -1.73,1.77 z"
   class="st1"
   id="path12"
   inkscape:connector-curvature="0"
   style="fill:#ff8c00;stroke:none;stroke-width:12.23999977;stroke-linecap:butt" />
				</g>
				<g
   id="shape12795-5"
   transform="translate(0,-8.26772)">
					<title
   id="title15">path6</title>
					<path
   d="M 34.99,102.95 H 1.72 A 1.72103,1.77165 0 0 1 0,101.18 V 59.84 a 1.72103,1.77165 0 0 1 1.72,-1.77 h 33.27 a 1.72103,1.77165 0 0 1 1.73,1.77 v 41.34 a 1.72103,1.77165 0 0 1 -1.73,1.77 z"
   class="st2"
   id="path17"
   inkscape:connector-curvature="0"
   style="fill:#000000;fill-opacity:0.4;stroke:none;stroke-width:12.23999977;stroke-linecap:butt" />
				</g>
				<g
   id="shape12796-7"
   transform="translate(3.44207,-11.811)">
					<title
   id="title20">path8</title>
					<rect
   x="0"
   y="65.153397"
   width="29.831301"
   height="37.7953"
   class="st3"
   id="rect22"
   style="fill:#ffffff;stroke:none;stroke-width:12.23999977;stroke-linecap:butt" />
				</g>
				<g
   id="shape12797-9"
   transform="translate(9.17885,-47.2441)">
					<title
   id="title25">path10</title>
					<path
   d="M 18.36,102.95 H 0 V 97.28 A 3.67154,3.77953 0 0 1 3.67,93.5 h 11.02 a 3.67154,3.77953 0 0 1 3.67,3.78 z"
   class="st4"
   id="path27"
   inkscape:connector-curvature="0"
   style="fill:#a0a1a2;stroke:none;stroke-width:12.23999977;stroke-linecap:butt" />
				</g>
				<g
   id="shape12798-11"
   transform="translate(9.17885,-47.2441)">
					<title
   id="title30">path12</title>
					<path
   d="M 9.18,93.5 H 3.67 A 3.67154,3.77953 -180 0 0 0,97.28 v 5.67 h 9.18 z"
   class="st5"
   id="path32"
   inkscape:connector-curvature="0"
   style="fill:#ffffff;fill-opacity:0.2;stroke:none;stroke-width:12.23999977;stroke-linecap:butt" />
				</g>
				<g
   id="shape12799-13"
   transform="translate(16.063,-18.8976)">
					<title
   id="title35">path14</title>
					<path
   d="m 0,81.69 h 12.62 v 2.36 H 0 Z m 0,9.45 H 12.62 V 93.5 H 0 Z m 0,9.45 h 12.62 v 2.36 H 0 Z"
   class="st6"
   id="path37"
   inkscape:connector-curvature="0"
   style="fill:#59b4d9;stroke:none;stroke-width:12.23999977;stroke-linecap:butt" />
				</g>
				<g
   id="shape12800-15"
   transform="translate(26.3892,-8.26772)">
					<title
   id="title40">path16</title>
					<path
   d="M 5.74,93.5 H 0 v 9.45 h 8.61 a 1.72103,1.77165 -180 0 0 1.72,-1.77 V 90.9 C 7.77,90.35 5.85,88.02 5.85,85.23 c 0,-2.79 1.92,-5.12 4.48,-5.66 v -2.39 c -3.83,0.57 -6.77,3.96 -6.77,8.05 0,2.33 0.95,4.42 2.47,5.91 H 5.74 Z"
   class="st7"
   id="path42"
   inkscape:connector-curvature="0"
   style="fill:#ffffff;fill-opacity:0.4;stroke:none;stroke-width:12.23999977;stroke-linecap:butt" />
				</g>
				<g
   id="shape12801-17"
   transform="translate(27.5366)">
					<title
   id="title45">path18</title>
					<path
   d="m 17.1,76.96 a 6.77,6.9691106 0 1 1 -13.54,0 6.77,6.9691106 0 0 1 13.54,0 z M 14.55,86.41 10.33,93.12 6.1,86.41 H 0 v 16.54 H 20.65 V 86.41 Z"
   class="st8"
   id="path47"
   inkscape:connector-curvature="0"
   style="fill:#3999c6;stroke:none;stroke-width:12.23999977;stroke-linecap:butt" />
				</g>
				<g
   id="shape12802-19"
   transform="translate(6.88414,-16.5354)">
					<title
   id="title50">path20</title>
					<path
   d="m 0,78.15 h 5.74 v 5.9 H 0 Z m 0,9.44 H 5.74 V 93.5 H 0 Z m 0,9.45 h 5.74 v 5.91 H 0 Z"
   class="st6"
   id="path52"
   inkscape:connector-curvature="0"
   style="fill:#59b4d9;stroke:none;stroke-width:12.23999977;stroke-linecap:butt" />
				</g>
				<g
   id="shape12803-21"
   transform="translate(8.31834,-18.0118)">
					<title
   id="title55">path22</title>
					<path
   d="m 0,81.1 h 2.87 v 2.95 H 0 Z m 0,9.45 H 2.87 V 93.5 H 0 Z M 0,100 h 2.87 v 2.95 H 0 Z"
   class="st3"
   id="path57"
   inkscape:connector-curvature="0"
   style="fill:#ffffff;stroke:none;stroke-width:12.23999977;stroke-linecap:butt" />
				</g>
			</g>
		</g>
	</g>
</svg>

<?xml version="1.0" encoding="UTF-8" standalone="no"?>
<!DOCTYPE svg PUBLIC "-//W3C//DTD SVG 1.1//EN" "http://www.w3.org/Graphics/SVG/1.1/DTD/svg11.dtd">
<!-- Generated by Microsoft Visio, SVG Export Azure LightHouse My Request.svg Page-1 -->
<svg xmlns="http://www.w3.org/2000/svg" xmlns:xlink="http://www.w3.org/1999/xlink" xmlns:ev="http://www.w3.org/2001/xml-events"
		width="1.00929in" height="1.42984in" viewBox="0 0 72.669 102.949" xml:space="preserve" color-interpolation-filters="sRGB"
		class="st9">
	<style type="text/css">
	<![CDATA[
		.st1 {fill:#ff8c00;stroke:none;stroke-linecap:butt;stroke-width:12.24}
		.st2 {fill:#000000;fill-opacity:0.4;stroke:none;stroke-linecap:butt;stroke-width:12.24}
		.st3 {fill:#ffffff;stroke:none;stroke-linecap:butt;stroke-width:12.24}
		.st4 {fill:#a0a1a2;stroke:none;stroke-linecap:butt;stroke-width:12.24}
		.st5 {fill:#ffffff;fill-opacity:0.2;stroke:none;stroke-linecap:butt;stroke-width:12.24}
		.st6 {fill:#59b4d9;stroke:none;stroke-linecap:butt;stroke-width:12.24}
		.st7 {fill:#ffffff;fill-opacity:0.4;stroke:none;stroke-linecap:butt;stroke-width:12.24}
		.st8 {fill:#3999c6;stroke:none;stroke-linecap:butt;stroke-width:12.24}
		.st9 {fill:none;fill-rule:evenodd;font-size:12px;overflow:visible;stroke-linecap:square;stroke-miterlimit:3}
	]]>
	</style>

	<g>
		<title>Page-1</title>
		<g id="group12499-1" transform="translate(12.24,-34.0157)">
			<title>Azure LightHouse My Request.12499</title>
			<g id="group12500-2">
				<title>g24</title>
				<g id="shape12501-3" transform="translate(0,-8.26772)">
					<title>path4</title>
					<path d="M34.99 102.95 L1.72 102.95 A1.72103 1.77165 0 0 1 0 101.18 L0 59.84 A1.72103 1.77165 0 0 1 1.72 58.07
								 L34.99 58.07 A1.72103 1.77165 0 0 1 36.72 59.84 L36.72 101.18 A1.72103 1.77165 0 0 1 34.99 102.95
								 Z" class="st1"/>
				</g>
				<g id="shape12502-5" transform="translate(0,-8.26772)">
					<title>path6</title>
					<path d="M34.99 102.95 L1.72 102.95 A1.72103 1.77165 0 0 1 0 101.18 L0 59.84 A1.72103 1.77165 0 0 1 1.72 58.07
								 L34.99 58.07 A1.72103 1.77165 0 0 1 36.72 59.84 L36.72 101.18 A1.72103 1.77165 0 0 1 34.99 102.95
								 Z" class="st2"/>
				</g>
				<g id="shape12503-7" transform="translate(3.44207,-11.811)">
					<title>path8</title>
					<rect x="0" y="65.1534" width="29.8313" height="37.7953" class="st3"/>
				</g>
				<g id="shape12504-9" transform="translate(9.17885,-47.2441)">
					<title>path10</title>
					<path d="M18.36 102.95 L0 102.95 L0 97.28 A3.67154 3.77953 0 0 1 3.67 93.5 L14.69 93.5 A3.67154 3.77953 0 0 1
								 18.36 97.28 L18.36 102.95 Z" class="st4"/>
				</g>
				<g id="shape12505-11" transform="translate(9.17885,-47.2441)">
					<title>path12</title>
					<path d="M9.18 93.5 L3.67 93.5 A3.67154 3.77953 -180 0 0 0 97.28 L0 102.95 L9.18 102.95 L9.18 93.5 Z"
							class="st5"/>
				</g>
				<g id="shape12506-13" transform="translate(16.063,-18.8976)">
					<title>path14</title>
					<path d="M0 81.69 L12.62 81.69 L12.62 84.05 L0 84.05 L0 81.69 ZM0 91.14 L12.62 91.14 L12.62 93.5 L0 93.5 L0 91.14
								 ZM0 100.59 L12.62 100.59 L12.62 102.95 L0 102.95 L0 100.59 Z" class="st6"/>
				</g>
				<g id="shape12507-15" transform="translate(26.3892,-8.26772)">
					<title>path16</title>
					<path d="M5.74 93.5 L0 93.5 L0 102.95 L8.61 102.95 A1.72103 1.77165 -180 0 0 10.33 101.18 L10.33 90.9 C7.77 90.35
								 5.85 88.02 5.85 85.23 C5.85 82.44 7.77 80.11 10.33 79.57 L10.33 77.18 C6.5 77.75 3.56 81.14 3.56
								 85.23 C3.56 87.56 4.51 89.65 6.03 91.14 L5.74 91.14 L5.74 93.5 Z" class="st7"/>
				</g>
				<g id="shape12508-17" transform="translate(27.5366,-2.84217E-13)">
					<title>path18</title>
					<path d="M17.1 76.96 A6.76998 6.96909 0 1 1 3.56 76.96 A6.76998 6.96909 0 0 1 17.1 76.96 ZM14.55 86.41 L10.33
								 93.12 L6.1 86.41 L0 86.41 L0 102.95 L20.65 102.95 L20.65 86.41 L14.55 86.41 Z" class="st8"/>
				</g>
				<g id="shape12509-19" transform="translate(6.88414,-16.5354)">
					<title>path20</title>
					<path d="M0 78.15 L5.74 78.15 L5.74 84.05 L0 84.05 L0 78.15 ZM0 87.59 L5.74 87.59 L5.74 93.5 L0 93.5 L0 87.59
								 ZM0 97.04 L5.74 97.04 L5.74 102.95 L0 102.95 L0 97.04 Z" class="st6"/>
				</g>
				<g id="shape12510-21" transform="translate(8.31834,-18.0118)">
					<title>path22</title>
					<path d="M0 81.1 L2.87 81.1 L2.87 84.05 L0 84.05 L0 81.1 ZM0 90.55 L2.87 90.55 L2.87 93.5 L0 93.5 L0 90.55 ZM0
								 100 L2.87 100 L2.87 102.95 L0 102.95 L0 100 Z" class="st3"/>
				</g>
			</g>
		</g>
	</g>
</svg>
